Newaita-dark/apps/16/itch.svg

<svg height="16" viewBox="0 0 16 16" width="16" xmlns="http://www.w3.org/2000/svg" xmlns:xlink="http://www.w3.org/1999/xlink"><linearGradient id="a" gradientTransform="matrix(.0291439 0 0 .031253 .497155 6.719393)" gradientUnits="userSpaceOnUse" x1="254" x2="254" y1="233.5" y2="254.666672"><stop offset="0" stop-opacity=".27451"/><stop offset="1" stop-opacity="0"/></linearGradient><linearGradient id="b"><stop offset="0" stop-opacity=".313726"/><stop offset=".222222" stop-opacity=".27451"/><stop offset="1" stop-opacity="0"/></linearGradient><radialGradient id="c" cx="450.908936" cy="189.579361" gradientTransform="matrix(.00000008 -.0390662 -.0655738 -.00000005 25.26613 31.797666)" gradientUnits="userSpaceOnUse" r="21.166656" xlink:href="#b"/><radialGradient id="d" cx="450.908936" cy="189.579361" gradientTransform="matrix(-.00000008 .0390662 .0655738 .00000005 -9.389614 -3.763739)" gradientUnits="userSpaceOnUse" r="21.166656" xlink:href="#b"/><radialGradient id="e" cx="450.908936" cy="189.579361" gradientTransform="matrix(-.00000008 -.0390662 .0655738 -.00000005 -9.389614 31.797666)" gradientUnits="userSpaceOnUse" r="21.166656" xlink:href="#b"/><radialGradient id="f" cx="450.908936" cy="189.579361" gradientTransform="matrix(.00000008 .0390662 -.0655738 .00000005 25.266129 -3.76374)" gradientUnits="userSpaceOnUse" r="21.166656" xlink:href="#b"/><linearGradient id="g" gradientUnits="userSpaceOnUse" x1="7.938262" x2="7.938262" y1="14.0169675" y2="1.44805249998"><stop offset="0" stop-color="#f44336"/><stop offset="1" stop-color="#ef5350"/></linearGradient><linearGradient id="h" gradientUnits="userSpaceOnUse" x1="7.9414732" x2="7.9414732" y1="13.85159232992" y2="1.28268192992"><stop offset="0" stop-color="#bdbdbd"/><stop offset="1" stop-color="#e0e0e0"/></linearGradient><path d="m2.886719 14.015625h10.101562v.664063h-10.101562zm0 0" fill="url(#a)"/><path d="m12.988281 14.015625h1.234375v-.660156h-1.234375zm0 0" fill="url(#c)"/><path d="m2.886719 14.015625h-1.234375v.664063h1.234375zm0 0" fill="url(#d)"/><path d="m2.886719 14.015625h-1.234375v-.660156h1.234375zm0 0" fill="url(#e)"/><path d="m12.988281 14.015625h1.234375v.664063h-1.234375zm0 0" fill="url(#f)"/><path d="m2.316406 1.449219h11.246094c.363281 0 .660156.296875.660156.660156v11.246094c0 .367187-.296875.660156-.660156.660156h-11.246094c-.367187 0-.664062-.292969-.664062-.660156v-11.246094c0-.363281.296875-.660156.664062-.660156zm0 0" fill="url(#g)"/><path d="m2.316406 1.449219c-.367187 0-.664062.292969-.664062.660156v.167969c0-.367188.296875-.660156.664062-.660156h11.246094c.363281 0 .660156.292968.660156.660156v-.167969c0-.367187-.296875-.660156-.660156-.660156zm0 0" fill="#fff" fill-opacity=".392157"/><path d="m2.316406 14.015625c-.367187 0-.664062-.292969-.664062-.660156v-.25c0 .367187.296875.664062.664062.664062h11.246094c.363281 0 .660156-.296875.660156-.664062v.25c0 .367187-.296875.660156-.660156.660156zm0 0" fill-opacity=".235294"/><path d="m74.117922-168.629428h359.840637c11.62389 0 21.122983 9.499093 21.122983 21.122983v359.840637c0 11.748878-9.499093 21.122982-21.122983 21.122982h-359.840637c-11.748878 0-21.247971-9.374104-21.247971-21.122982v-359.840637c0-11.62389 9.499093-21.122983 21.247971-21.122983zm0 0" fill="none" stroke="#212121" stroke-linecap="round" stroke-linejoin="round" stroke-width="3" transform="matrix(.031253 0 0 .031253 0 6.719392)"/><path d="m5.957031 5.085938c-.917969 0-1.652343.738281-1.652343 1.65625 0 .371093.121093.714843.328124.992187v.363281c0 1.097656.347657 1.984375.78125 1.984375h.09375c.398438 0 .722657-.746093.773438-1.71875.167969-.035156.328125-.09375.472656-.171875.03125.367188.855469.367188.855469-.128906h.664063c0 .496094.824218.496094.855468.128906.144532.078125.304688.136719.472656.171875.050782.972657.375 1.71875.773438 1.71875h.09375c.433594 0 .78125-.886719.78125-1.984375v-.363281c.207031-.277344.328125-.621094.328125-.992187 0-.917969-.734375-1.65625-1.652344-1.65625-.542969 0-1.023437.261718-1.324219.660156h-1.320312c-.300781-.398438-.78125-.660156-1.324219-.660156zm1.820313 1.074218h.328125c.09375 0 .167969.074219.167969.167969v.496094h.328124l-.660156.824219-.660156-.824219h.328125v-.496094c0-.09375.074219-.167969.167969-.167969zm0 0" fill="url(#h)"/><path d="m5.957031 5.085938c-.917969 0-1.652343.738281-1.652343 1.652343v.105469c.054687-.867188.769531-1.550781 1.652343-1.550781.542969 0 1.023438.257812 1.324219.660156h1.320312c.300782-.402344.78125-.660156 1.324219-.660156.882813 0 1.597657.683593 1.652344 1.550781 0-.035156 0-.070312 0-.105469 0-.914062-.734375-1.652343-1.652344-1.652343-.542969 0-1.023437.261718-1.324219.660156h-1.320312c-.300781-.398438-.78125-.660156-1.324219-.660156zm1.324219 1.945312.660156.824219.660156-.824219h-.164062l-.496094.617188-.496094-.617188zm0 0" fill="#f7f7f7"/><path d="m7.777344 6.160156c-.09375 0-.167969.074219-.167969.164063v.363281c0-.089844.074219-.164062.167969-.164062h.328125c.09375 0 .167969.074218.167969.164062v-.363281c0-.089844-.074219-.164063-.167969-.164063zm-.496094.660156.289062.363282h.039063v-.363282zm.992188 0v.363282h.039062l.289062-.363282zm-3.960938.101563c-.007812.058594-.007812.117187-.007812.179687 0 .375.121093.71875.328124.996094v.359375c0 1.101563.347657 1.984375.78125 1.984375h.09375c.398438 0 .722657-.742187.773438-1.714844.167969-.035156.328125-.09375.472656-.175781.03125.371094.855469.371094.855469-.125h.664063c0 .496094.824218.496094.855468.125.144532.082031.304688.140625.472656.175781.050782.972657.375 1.714844.773438 1.714844h.09375c.433594 0 .78125-.882812.78125-1.984375v-.359375c.207031-.277344.328125-.621094.328125-.996094 0-.0625 0-.121093-.007813-.179687-.035156.300781-.148437.578125-.320312.8125v.359375c0 1.097656-.347656 1.984375-.78125 1.984375h-.09375c-.398438 0-.722656-.746094-.773438-1.71875-.167968-.03125-.328124-.089844-.472656-.171875-.03125.371094-.855468.371094-.855468-.125h-.664063c0 .496094-.824219.496094-.855469.125-.144531.082031-.304687.140625-.472656.171875-.050781.972656-.375 1.71875-.773438 1.71875h-.09375c-.433593 0-.78125-.886719-.78125-1.984375v-.359375c-.171874-.234375-.285156-.511719-.320312-.8125zm0 0" fill-opacity=".235294"/><path d="m190.50395-46.974117c-29.372195 0-52.869951 23.622745-52.869951 52.99494 0 11.873866 3.87463 22.872815 10.498997 31.746968v11.62389c0 35.121646 11.123938 63.493937 24.997613 63.493937h2.999713c12.748783 0 23.122792-23.872721 24.747637-54.994749 5.374487-1.124892 10.498997-2.999713 15.123556-5.499474.999904 11.748878 27.372386 11.748878 27.372386-4.124607h21.247971c0 15.873485 26.372481 15.873485 27.372386 4.124607 4.624558 2.499761 9.749069 4.374582 15.123556 5.499474 1.624845 31.122028 11.998854 54.994749 24.747636 54.994749h2.999714c13.873675 0 24.997613-28.372291 24.997613-63.493937v-11.62389c6.624367-8.874153 10.498997-19.873102 10.498997-31.746968 0-29.372195-23.497756-52.99494-52.869951-52.99494-17.373341 0-32.746873 8.374201-42.370954 21.122983h-42.245965c-9.624081-12.748782-24.997613-21.122983-42.370954-21.122983zm58.244438 34.371718h10.498997c2.999714 0 5.374487 2.374773 5.374487 5.374487v15.873484h10.498997l-21.122983 26.372482-21.122982-26.372482h10.498997v-15.873484c0-2.999714 2.374773-5.374487 5.374487-5.374487zm0 0" fill="none" stroke="#212121" stroke-linecap="round" stroke-linejoin="round" stroke-width="3" transform="matrix(.031253 0 0 .031253 .003214 6.554019)"/></svg>

<?xml version="1.0" encoding="UTF-8"?>
<svg xmlns="http://www.w3.org/2000/svg" xmlns:xlink="http://www.w3.org/1999/xlink" width="16px" height="16px" viewBox="0 0 16 16" version="1.1">
<defs>
<linearGradient id="linear0" gradientUnits="userSpaceOnUse" x1="254" y1="233.5" x2="254" y2="254.666672" gradientTransform="matrix(0.0291439,0,0,0.031253,0.497155,6.719393)">
<stop offset="0" style="stop-color:rgb(0%,0%,0%);stop-opacity:0.27451;"/>
<stop offset="1" style="stop-color:rgb(0%,0%,0%);stop-opacity:0;"/>
</linearGradient>
<radialGradient id="radial0" gradientUnits="userSpaceOnUse" cx="450.908936" cy="189.579361" fx="450.908936" fy="189.579361" r="21.166656" gradientTransform="matrix(0.0000000812083,-0.0390662,-0.0655738,-0.0000000507693,25.26613,31.797666)">
<stop offset="0" style="stop-color:rgb(0%,0%,0%);stop-opacity:0.313726;"/>
<stop offset="0.222222" style="stop-color:rgb(0%,0%,0%);stop-opacity:0.27451;"/>
<stop offset="1" style="stop-color:rgb(0%,0%,0%);stop-opacity:0;"/>
</radialGradient>
<radialGradient id="radial1" gradientUnits="userSpaceOnUse" cx="450.908936" cy="189.579361" fx="450.908936" fy="189.579361" r="21.166656" gradientTransform="matrix(-0.0000000812083,0.0390662,0.0655738,0.0000000507693,-9.389614,-3.763739)">
<stop offset="0" style="stop-color:rgb(0%,0%,0%);stop-opacity:0.313726;"/>
<stop offset="0.222222" style="stop-color:rgb(0%,0%,0%);stop-opacity:0.27451;"/>
<stop offset="1" style="stop-color:rgb(0%,0%,0%);stop-opacity:0;"/>
</radialGradient>
<radialGradient id="radial2" gradientUnits="userSpaceOnUse" cx="450.908936" cy="189.579361" fx="450.908936" fy="189.579361" r="21.166656" gradientTransform="matrix(-0.0000000812083,-0.0390662,0.0655738,-0.0000000507693,-9.389614,31.797666)">
<stop offset="0" style="stop-color:rgb(0%,0%,0%);stop-opacity:0.313726;"/>
<stop offset="0.222222" style="stop-color:rgb(0%,0%,0%);stop-opacity:0.27451;"/>
<stop offset="1" style="stop-color:rgb(0%,0%,0%);stop-opacity:0;"/>
</radialGradient>
<radialGradient id="radial3" gradientUnits="userSpaceOnUse" cx="450.908936" cy="189.579361" fx="450.908936" fy="189.579361" r="21.166656" gradientTransform="matrix(0.0000000812083,0.0390662,-0.0655738,0.0000000507693,25.266129,-3.76374)">
<stop offset="0" style="stop-color:rgb(0%,0%,0%);stop-opacity:0.313726;"/>
<stop offset="0.222222" style="stop-color:rgb(0%,0%,0%);stop-opacity:0.27451;"/>
<stop offset="1" style="stop-color:rgb(0%,0%,0%);stop-opacity:0;"/>
</radialGradient>
<linearGradient id="linear1" gradientUnits="userSpaceOnUse" x1="254" y1="233.5" x2="254" y2="-168.666672" gradientTransform="matrix(0.031253,0,0,0.031253,0,6.719392)">
<stop offset="0" style="stop-color:rgb(95.686275%,26.274511%,21.176471%);stop-opacity:1;"/>
<stop offset="1" style="stop-color:rgb(93.725491%,32.549021%,31.37255%);stop-opacity:1;"/>
</linearGradient>
<linearGradient id="linear2" gradientUnits="userSpaceOnUse" x1="960" y1="1715.117188" x2="960" y2="195.117188" gradientTransform="matrix(0.00826902,0,0,0.00826902,0.00321431,-0.330746)">
<stop offset="0" style="stop-color:rgb(74.117649%,74.117649%,74.117649%);stop-opacity:1;"/>
<stop offset="1" style="stop-color:rgb(87.843138%,87.843138%,87.843138%);stop-opacity:1;"/>
</linearGradient>
</defs>
<g id="surface1">
<path style=" stroke:none;fill-rule:nonzero;fill:url(#linear0);" d="M 2.886719 14.015625 L 12.988281 14.015625 L 12.988281 14.679688 L 2.886719 14.679688 Z M 2.886719 14.015625 "/>
<path style=" stroke:none;fill-rule:nonzero;fill:url(#radial0);" d="M 12.988281 14.015625 L 14.222656 14.015625 L 14.222656 13.355469 L 12.988281 13.355469 Z M 12.988281 14.015625 "/>
<path style=" stroke:none;fill-rule:nonzero;fill:url(#radial1);" d="M 2.886719 14.015625 L 1.652344 14.015625 L 1.652344 14.679688 L 2.886719 14.679688 Z M 2.886719 14.015625 "/>
<path style=" stroke:none;fill-rule:nonzero;fill:url(#radial2);" d="M 2.886719 14.015625 L 1.652344 14.015625 L 1.652344 13.355469 L 2.886719 13.355469 Z M 2.886719 14.015625 "/>
<path style=" stroke:none;fill-rule:nonzero;fill:url(#radial3);" d="M 12.988281 14.015625 L 14.222656 14.015625 L 14.222656 14.679688 L 12.988281 14.679688 Z M 12.988281 14.015625 "/>
<path style=" stroke:none;fill-rule:nonzero;fill:url(#linear1);" d="M 2.316406 1.449219 L 13.5625 1.449219 C 13.925781 1.449219 14.222656 1.746094 14.222656 2.109375 L 14.222656 13.355469 C 14.222656 13.722656 13.925781 14.015625 13.5625 14.015625 L 2.316406 14.015625 C 1.949219 14.015625 1.652344 13.722656 1.652344 13.355469 L 1.652344 2.109375 C 1.652344 1.746094 1.949219 1.449219 2.316406 1.449219 Z M 2.316406 1.449219 "/>
<path style=" stroke:none;fill-rule:nonzero;fill:rgb(100%,100%,100%);fill-opacity:0.392157;" d="M 2.316406 1.449219 C 1.949219 1.449219 1.652344 1.742188 1.652344 2.109375 L 1.652344 2.277344 C 1.652344 1.910156 1.949219 1.617188 2.316406 1.617188 L 13.5625 1.617188 C 13.925781 1.617188 14.222656 1.910156 14.222656 2.277344 L 14.222656 2.109375 C 14.222656 1.742188 13.925781 1.449219 13.5625 1.449219 Z M 2.316406 1.449219 "/>
<path style=" stroke:none;fill-rule:nonzero;fill:rgb(0%,0%,0%);fill-opacity:0.235294;" d="M 2.316406 14.015625 C 1.949219 14.015625 1.652344 13.722656 1.652344 13.355469 L 1.652344 13.105469 C 1.652344 13.472656 1.949219 13.769531 2.316406 13.769531 L 13.5625 13.769531 C 13.925781 13.769531 14.222656 13.472656 14.222656 13.105469 L 14.222656 13.355469 C 14.222656 13.722656 13.925781 14.015625 13.5625 14.015625 Z M 2.316406 14.015625 "/>
<path style="fill:none;stroke-width:3;stroke-linecap:round;stroke-linejoin:round;stroke:rgb(12.941177%,12.941177%,12.941177%);stroke-opacity:1;stroke-miterlimit:4;" d="M 74.117922 -168.629428 L 433.958559 -168.629428 C 445.582449 -168.629428 455.081542 -159.130335 455.081542 -147.506445 L 455.081542 212.334192 C 455.081542 224.08307 445.582449 233.457174 433.958559 233.457174 L 74.117922 233.457174 C 62.369044 233.457174 52.869951 224.08307 52.869951 212.334192 L 52.869951 -147.506445 C 52.869951 -159.130335 62.369044 -168.629428 74.117922 -168.629428 Z M 74.117922 -168.629428 " transform="matrix(0.031253,0,0,0.031253,0,6.719392)"/>
<path style=" stroke:none;fill-rule:nonzero;fill:url(#linear2);" d="M 5.957031 5.085938 C 5.039062 5.085938 4.304688 5.824219 4.304688 6.742188 C 4.304688 7.113281 4.425781 7.457031 4.632812 7.734375 L 4.632812 8.097656 C 4.632812 9.195312 4.980469 10.082031 5.414062 10.082031 L 5.507812 10.082031 C 5.90625 10.082031 6.230469 9.335938 6.28125 8.363281 C 6.449219 8.328125 6.609375 8.269531 6.753906 8.191406 C 6.785156 8.558594 7.609375 8.558594 7.609375 8.0625 L 8.273438 8.0625 C 8.273438 8.558594 9.097656 8.558594 9.128906 8.191406 C 9.273438 8.269531 9.433594 8.328125 9.601562 8.363281 C 9.652344 9.335938 9.976562 10.082031 10.375 10.082031 L 10.46875 10.082031 C 10.902344 10.082031 11.25 9.195312 11.25 8.097656 L 11.25 7.734375 C 11.457031 7.457031 11.578125 7.113281 11.578125 6.742188 C 11.578125 5.824219 10.84375 5.085938 9.925781 5.085938 C 9.382812 5.085938 8.902344 5.347656 8.601562 5.746094 L 7.28125 5.746094 C 6.980469 5.347656 6.5 5.085938 5.957031 5.085938 Z M 7.777344 6.160156 L 8.105469 6.160156 C 8.199219 6.160156 8.273438 6.234375 8.273438 6.328125 L 8.273438 6.824219 L 8.601562 6.824219 L 7.941406 7.648438 L 7.28125 6.824219 L 7.609375 6.824219 L 7.609375 6.328125 C 7.609375 6.234375 7.683594 6.160156 7.777344 6.160156 Z M 7.777344 6.160156 "/>
<path style=" stroke:none;fill-rule:nonzero;fill:rgb(96.862745%,96.862745%,96.862745%);fill-opacity:1;" d="M 5.957031 5.085938 C 5.039062 5.085938 4.304688 5.824219 4.304688 6.738281 C 4.304688 6.773438 4.304688 6.808594 4.304688 6.84375 C 4.359375 5.976562 5.074219 5.292969 5.957031 5.292969 C 6.5 5.292969 6.980469 5.550781 7.28125 5.953125 L 8.601562 5.953125 C 8.902344 5.550781 9.382812 5.292969 9.925781 5.292969 C 10.808594 5.292969 11.523438 5.976562 11.578125 6.84375 C 11.578125 6.808594 11.578125 6.773438 11.578125 6.738281 C 11.578125 5.824219 10.84375 5.085938 9.925781 5.085938 C 9.382812 5.085938 8.902344 5.347656 8.601562 5.746094 L 7.28125 5.746094 C 6.980469 5.347656 6.5 5.085938 5.957031 5.085938 Z M 7.28125 7.03125 L 7.941406 7.855469 L 8.601562 7.03125 L 8.4375 7.03125 L 7.941406 7.648438 L 7.445312 7.03125 Z M 7.28125 7.03125 "/>
<path style=" stroke:none;fill-rule:nonzero;fill:rgb(0%,0%,0%);fill-opacity:0.235294;" d="M 7.777344 6.160156 C 7.683594 6.160156 7.609375 6.234375 7.609375 6.324219 L 7.609375 6.6875 C 7.609375 6.597656 7.683594 6.523438 7.777344 6.523438 L 8.105469 6.523438 C 8.199219 6.523438 8.273438 6.597656 8.273438 6.6875 L 8.273438 6.324219 C 8.273438 6.234375 8.199219 6.160156 8.105469 6.160156 Z M 7.28125 6.820312 L 7.570312 7.183594 L 7.609375 7.183594 L 7.609375 6.820312 Z M 8.273438 6.820312 L 8.273438 7.183594 L 8.3125 7.183594 L 8.601562 6.820312 Z M 4.3125 6.921875 C 4.304688 6.980469 4.304688 7.039062 4.304688 7.101562 C 4.304688 7.476562 4.425781 7.820312 4.632812 8.097656 L 4.632812 8.457031 C 4.632812 9.558594 4.980469 10.441406 5.414062 10.441406 L 5.507812 10.441406 C 5.90625 10.441406 6.230469 9.699219 6.28125 8.726562 C 6.449219 8.691406 6.609375 8.632812 6.753906 8.550781 C 6.785156 8.921875 7.609375 8.921875 7.609375 8.425781 L 8.273438 8.425781 C 8.273438 8.921875 9.097656 8.921875 9.128906 8.550781 C 9.273438 8.632812 9.433594 8.691406 9.601562 8.726562 C 9.652344 9.699219 9.976562 10.441406 10.375 10.441406 L 10.46875 10.441406 C 10.902344 10.441406 11.25 9.558594 11.25 8.457031 L 11.25 8.097656 C 11.457031 7.820312 11.578125 7.476562 11.578125 7.101562 C 11.578125 7.039062 11.578125 6.980469 11.570312 6.921875 C 11.535156 7.222656 11.421875 7.5 11.25 7.734375 L 11.25 8.09375 C 11.25 9.191406 10.902344 10.078125 10.46875 10.078125 L 10.375 10.078125 C 9.976562 10.078125 9.652344 9.332031 9.601562 8.359375 C 9.433594 8.328125 9.273438 8.269531 9.128906 8.1875 C 9.097656 8.558594 8.273438 8.558594 8.273438 8.0625 L 7.609375 8.0625 C 7.609375 8.558594 6.785156 8.558594 6.753906 8.1875 C 6.609375 8.269531 6.449219 8.328125 6.28125 8.359375 C 6.230469 9.332031 5.90625 10.078125 5.507812 10.078125 L 5.414062 10.078125 C 4.980469 10.078125 4.632812 9.191406 4.632812 8.09375 L 4.632812 7.734375 C 4.460938 7.5 4.347656 7.222656 4.3125 6.921875 Z M 4.3125 6.921875 "/>
<path style="fill:none;stroke-width:3;stroke-linecap:round;stroke-linejoin:round;stroke:rgb(12.941177%,12.941177%,12.941177%);stroke-opacity:1;stroke-miterlimit:4;" d="M 190.50395 -46.974117 C 161.131755 -46.974117 137.633999 -23.351372 137.633999 6.020823 C 137.633999 17.894689 141.508629 28.893638 148.132996 37.767791 L 148.132996 49.391681 C 148.132996 84.513327 159.256934 112.885618 173.130609 112.885618 L 176.130322 112.885618 C 188.879105 112.885618 199.253114 89.012897 200.877959 57.890869 C 206.252446 56.765977 211.376956 54.891156 216.001515 52.391395 C 217.001419 64.140273 243.373901 64.140273 243.373901 48.266788 L 264.621872 48.266788 C 264.621872 64.140273 290.994353 64.140273 291.994258 52.391395 C 296.618816 54.891156 301.743327 56.765977 307.117814 57.890869 C 308.742659 89.012897 319.116668 112.885618 331.86545 112.885618 L 334.865164 112.885618 C 348.738839 112.885618 359.862777 84.513327 359.862777 49.391681 L 359.862777 37.767791 C 366.487144 28.893638 370.361774 17.894689 370.361774 6.020823 C 370.361774 -23.351372 346.864018 -46.974117 317.491823 -46.974117 C 300.118482 -46.974117 284.74495 -38.599916 275.120869 -25.851134 L 232.874904 -25.851134 C 223.250823 -38.599916 207.877291 -46.974117 190.50395 -46.974117 Z M 248.748388 -12.602399 L 259.247385 -12.602399 C 262.247099 -12.602399 264.621872 -10.227626 264.621872 -7.227912 L 264.621872 8.645572 L 275.120869 8.645572 L 253.997886 35.018054 L 232.874904 8.645572 L 243.373901 8.645572 L 243.373901 -7.227912 C 243.373901 -10.227626 245.748674 -12.602399 248.748388 -12.602399 Z M 248.748388 -12.602399 " transform="matrix(0.031253,0,0,0.031253,0.00321431,6.554019)"/>
</g>
</svg>
